X:1
T:Title
%%score 1 { 2 | 3 }
L:1/8
Q:1/4=93
M:3/4
K:G
V:1 treble nm="Grand Piano, Soprano"
V:2 treble nm="Choir Pad, Big Bend, 87.87 D"
V:3 bass 
V:1
 [GB]>[GA] G3 [Ge] | [Gd][GB] [Gc]2 [GB]2 | E[EA] [DG]3 [DG] | [DA][DF] [DG]4 | [GB]>[GA] G3 [Ge] | %5
w: By~Charles~Walker~Ray,~1883 * * *|||||
 [Gd][GB] [Gc]2 [GB]2 | E[EA] [DG]3 [DG] | [DA][DF] [DG]4 | [FA]>[FA] [Fd]3 [FA] | %9
w: ||||
 [FA][Ac] [Ac]2 [GB]2 | [GB]>[GB] [Fc]3 [Fe] | [Gd][GB] [FA]4 | [Ac][Ac] [GB]3 [GB] | %13
w: ||||
 [GB][=Fd] [Fd]2 [Ec]2 | [GB][EA] [DG]3 [DG] | [DA][DF] [DG]4- | [DG]4 z2 |] %17
w: ||||
V:2
 D>C B,3 C | B,D E2 D2 | CC[K:bass] B,3 B, | CA, B,4 | D>C B,3 C | B,D E2 D2 | CC[K:bass] B,3 B, | %7
 CA, B,4 | D>D A,3 D | DD D2 D2 | D>D D3 C | B,D D4 | DD D3 D | DB, C2 C2 | DC[K:bass] B,3 B, | %15
 CA, B,4- | B,4 z2 |] %17
V:3
 G,>G, G,3 G, | G,G, G,2 G,2 | C,C, D,3 D, | D,D, G,4 | G,>G, G,3 G, | G,G, G,2 G,2 | C,C, D,3 D, | %7
 D,D, G,4 | D,>D, D,3 D, | D,D, G,2 G,2 | G,>G, D,3 D, | D,D, D,4 | D,D, G,3 G, | G,G, C,2 C,2 | %14
 C,C, D,3 D, | D,D, G,4- | G,4 z2 |] %17

